Simply white circles/scalable/mimes/image-bmp.svg

<?xml version="1.0" encoding="UTF-8" standalone="no"?>
<!-- Created with Inkscape (http://www.inkscape.org/) -->

<svg
   xmlns:dc="http://purl.org/dc/elements/1.1/"
   xmlns:cc="http://creativecommons.org/ns#"
   xmlns:rdf="http://www.w3.org/1999/02/22-rdf-syntax-ns#"
   xmlns:svg="http://www.w3.org/2000/svg"
   xmlns="http://www.w3.org/2000/svg"
   xmlns:xlink="http://www.w3.org/1999/xlink"
   xmlns:sodipodi="http://sodipodi.sourceforge.net/DTD/sodipodi-0.dtd"
   xmlns:inkscape="http://www.inkscape.org/namespaces/inkscape"
   version="1.1"
   width="48"
   height="48"
   id="svg21744"
   sodipodi:docname="image-bmp.svg"
   inkscape:version="0.92.3 (2405546, 2018-03-11)">
  <sodipodi:namedview
     pagecolor="#ffffff"
     bordercolor="#666666"
     borderopacity="1"
     objecttolerance="10"
     gridtolerance="10"
     guidetolerance="10"
     inkscape:pageopacity="0"
     inkscape:pageshadow="2"
     inkscape:window-width="1366"
     inkscape:window-height="719"
     id="namedview44"
     showgrid="false"
     inkscape:zoom="11.145833"
     inkscape:cx="24"
     inkscape:cy="24"
     inkscape:window-x="0"
     inkscape:window-y="25"
     inkscape:window-maximized="1"
     inkscape:current-layer="svg21744"
     inkscape:snap-global="false"
     showguides="true"
     inkscape:guide-bbox="true" />
  <defs
     id="defs21746">
    <linearGradient
       x1="525.4375"
       y1="836.1875"
       x2="516.65625"
       y2="828.5"
       id="linearGradient14113"
       xlink:href="#linearGradient14494-2-7"
       gradientUnits="userSpaceOnUse"
       gradientTransform="translate(-125.5,-1702.64)" />
    <linearGradient
       id="linearGradient14494-2-7">
      <stop
         id="stop14496-9-3"
         style="stop-color:#dc85e9;stop-opacity:1"
         offset="0" />
      <stop
         id="stop14498-9-7"
         style="stop-color:#f2cbf8;stop-opacity:1"
         offset="1" />
    </linearGradient>
    <linearGradient
       x1="520.58502"
       y1="735.05206"
       x2="516.15179"
       y2="720.86298"
       id="linearGradient14115"
       xlink:href="#linearGradient14494-5"
       gradientUnits="userSpaceOnUse" />
    <linearGradient
       id="linearGradient14494-5">
      <stop
         id="stop14496-5"
         style="stop-color:#dc85e9;stop-opacity:1"
         offset="0" />
      <stop
         id="stop14498-1"
         style="stop-color:#f2cbf8;stop-opacity:1"
         offset="1" />
    </linearGradient>
    <linearGradient
       x1="525.4375"
       y1="836.1875"
       x2="516.65625"
       y2="828.5"
       id="linearGradient54948"
       xlink:href="#linearGradient14494-2-7"
       gradientUnits="userSpaceOnUse"
       gradientTransform="translate(-462.50049,-802.00385)" />
    <linearGradient
       x1="520.58502"
       y1="735.05206"
       x2="516.15179"
       y2="720.86298"
       id="linearGradient14109"
       xlink:href="#linearGradient14494-5"
       gradientUnits="userSpaceOnUse"
       gradientTransform="matrix(0.512535,0,0,0.615385,-202.35949,-422.92385)" />
    <linearGradient
       x1="525.4375"
       y1="836.1875"
       x2="516.65625"
       y2="828.5"
       id="linearGradient54952"
       xlink:href="#linearGradient14494-2-7"
       gradientUnits="userSpaceOnUse"
       gradientTransform="translate(-462.50049,-797.50385)" />
    <linearGradient
       x1="209.0625"
       y1="-765.46082"
       x2="209.0625"
       y2="-781.62268"
       id="linearGradient44039"
       xlink:href="#linearGradient15606-1"
       gradientUnits="userSpaceOnUse"
       gradientTransform="matrix(1.5,0,0,1.5,-364.99949,1176.9562)" />
    <linearGradient
       id="linearGradient15606-1">
      <stop
         id="stop15608-0"
         style="stop-color:#ffffff;stop-opacity:0.58823502"
         offset="0" />
      <stop
         id="stop15610-5"
         style="stop-color:#ffffff;stop-opacity:0.86274499"
         offset="1" />
    </linearGradient>
    <linearGradient
       x1="294.3429"
       y1="256.58133"
       x2="294.41818"
       y2="243.13852"
       id="linearGradient44042"
       xlink:href="#linearGradient10286-3"
       gradientUnits="userSpaceOnUse"
       gradientTransform="matrix(2.99213,0,0,3.00466,-830.71149,-727.44385)" />
    <linearGradient
       id="linearGradient10286-3">
      <stop
         id="stop10288-8"
         style="stop-color:#b3b3b3;stop-opacity:1"
         offset="0" />
      <stop
         id="stop10290-7"
         style="stop-color:#e6e6e6;stop-opacity:1"
         offset="1" />
    </linearGradient>
    <linearGradient
       x1="110.96875"
       y1="976.29968"
       x2="110.96875"
       y2="992.375"
       id="linearGradient43236"
       xlink:href="#linearGradient4145-42"
       gradientUnits="userSpaceOnUse" />
    <linearGradient
       id="linearGradient4145-42">
      <stop
         id="stop4953"
         style="stop-color:#e694bb;stop-opacity:1"
         offset="0" />
      <stop
         id="stop4955"
         style="stop-color:#d3819a;stop-opacity:1"
         offset="0.26238" />
      <stop
         id="stop4957"
         style="stop-color:#b25a64;stop-opacity:1"
         offset="0.704952" />
      <stop
         id="stop4959"
         style="stop-color:#98313d;stop-opacity:1"
         offset="1" />
    </linearGradient>
    <linearGradient
       x1="110.96875"
       y1="976.29968"
       x2="110.99982"
       y2="991.87488"
       id="linearGradient14097-7"
       xlink:href="#linearGradient4145-42"
       gradientUnits="userSpaceOnUse"
       gradientTransform="matrix(1,0,0,1.00011,0,-0.10551)" />
    <linearGradient
       x1="110.96875"
       y1="976.29968"
       x2="110.96875"
       y2="992.375"
       id="linearGradient21742"
       xlink:href="#linearGradient4145-42"
       gradientUnits="userSpaceOnUse"
       gradientTransform="matrix(1.00399,0,0,1.00959,-1.1658,-9.36636)" />
    <clipPath
       clipPathUnits="userSpaceOnUse"
       id="clipPath867">
      <g
         inkscape:label="Clip"
         id="use869">
        <path
           d="m 47.000614,3.0210706 v 0.75 40.5000404 0.72723 h 0.75 32.499399 0.75 v -0.72723 -25.50003 -0.3282 l -0.2344,-0.2343 -14.9059,-15.0000104 -0.1875,-0.1875 h -0.3282 -17.593399 z"
           id="path875"
           style="color:#000000;font-style:normal;font-variant:normal;font-weight:normal;font-stretch:normal;font-size:medium;line-height:normal;font-family:'Andale Mono';text-indent:0pt;text-align:start;text-decoration:none;text-decoration-line:none;letter-spacing:normal;word-spacing:normal;text-transform:none;direction:ltr;text-anchor:start;display:inline;overflow:visible;visibility:visible;fill:#000000;fill-opacity:1;fill-rule:nonzero;stroke:none;stroke-width:1;marker:none"
           inkscape:connector-curvature="0" />
      </g>
    </clipPath>
  </defs>
  <metadata
     id="metadata21749">
    <rdf:RDF>
      <cc:Work
         rdf:about="">
        <dc:format>image/svg+xml</dc:format>
        <dc:type
           rdf:resource="http://purl.org/dc/dcmitype/StillImage" />
        <dc:title></dc:title>
      </cc:Work>
    </rdf:RDF>
  </metadata>
  <path
     style="fill:#e6e6e6;fill-opacity:1;stroke-width:0.70209807"
     d="M 10.212891 2.3535156 C 9.4347656 2.3364781 8.6467062 2.3928669 7.8789062 2.3574219 L 7.8789062 13.697266 C 7.7434662 14.265426 8.0235119 14.425799 8.5449219 14.318359 C 10.021722 14.245049 11.568697 14.531422 12.966797 13.914062 C 14.752197 13.139582 15.451181 10.608738 14.238281 9.0234375 C 14.045021 8.2414575 12.068106 8.0045469 12.753906 7.5605469 C 14.399606 6.4856469 14.227129 3.6684219 12.480469 2.7949219 C 11.757569 2.4624369 10.991016 2.3705531 10.212891 2.3535156 z M 18.482422 2.3828125 C 17.936222 6.3779125 17.38999 10.373741 16.84375 14.369141 L 17.957031 14.369141 C 18.330741 11.490041 18.704385 8.6115219 19.078125 5.7324219 C 20.317425 8.3229219 21.557575 10.913406 22.796875 13.503906 C 23.030715 13.794016 23.02182 14.488861 23.5 14.369141 C 24.8591 11.511741 26.219025 8.654275 27.578125 5.796875 C 27.951515 8.631475 28.323916 11.466181 28.697266 14.300781 C 28.958526 14.467351 29.48509 14.318571 29.84375 14.369141 C 29.34265 10.737841 28.840994 7.1073625 28.339844 3.4765625 C 28.198224 3.1462825 28.402723 2.4024225 28.001953 2.3828125 C 26.454753 5.6612125 24.906575 8.9383968 23.359375 12.216797 C 21.953775 9.2684968 20.548178 6.3213469 19.142578 3.3730469 C 18.903998 3.0740369 18.888952 2.4005625 18.482422 2.3828125 z M 35.380859 2.3828125 C 34.535709 2.3776525 33.68655 2.415885 32.84375 2.390625 L 32.84375 14.302734 C 33.08335 14.468674 33.604535 14.315704 33.953125 14.365234 L 33.953125 9.8125 C 34.053615 9.49698 33.74028 8.7285031 34.1875 8.7832031 C 35.78 8.7086631 37.576216 9.0436262 38.916016 7.9101562 C 40.508916 6.4663562 39.974131 3.236225 37.894531 2.640625 C 37.067231 2.437085 36.226009 2.3879725 35.380859 2.3828125 z M 9.0292969 3.5117188 C 9.8270669 3.5344787 10.637875 3.4459956 11.421875 3.6347656 C 12.578675 3.8215756 13.044972 5.2983531 12.451172 6.2519531 C 11.758192 7.4864531 10.226397 7.3318969 9.0292969 7.3417969 L 9.0292969 3.5117188 z M 35.699219 3.5351562 C 36.281206 3.5361087 36.859684 3.5672119 37.427734 3.7011719 C 38.893934 4.1210119 39.134011 6.5352094 37.806641 7.2871094 C 36.604841 7.8572494 35.230125 7.5792863 33.953125 7.6289062 L 33.953125 3.5449219 C 34.531325 3.5630519 35.117231 3.5342038 35.699219 3.5351562 z M 9.0292969 8.5566406 C 10.139897 8.5845106 11.316075 8.4611075 12.359375 8.9296875 C 13.722275 9.4626775 14.076264 11.469572 12.964844 12.451172 C 11.879144 13.424822 10.355897 13.063076 9.0292969 13.134766 L 9.0292969 8.5566406 z M 7.0605469 16.425781 L 3.7890625 18.833984 L 1.0019531 20.882812 L 3.0507812 23.669922 L 16.886719 42.474609 L 16.886719 46.546875 L 16.898438 46.546875 L 16.898438 47.851562 L 45.507812 47.851562 L 45.507812 47.796875 L 45.523438 47.796875 L 45.523438 18.007812 L 45.429688 18.007812 L 45.429688 18.003906 L 34.439453 18.003906 L 33.34375 16.513672 L 29.037109 16.5 L 30.144531 18.005859 L 20.34375 18.005859 L 16.886719 18.005859 L 16.886719 21.464844 L 16.886719 36.630859 L 5.8398438 21.619141 L 12.869141 16.447266 L 29.037109 16.5 L 7.0605469 16.425781 z M 20.34375 21.464844 L 42.066406 21.464844 L 42.066406 41.390625 L 20.388672 41.390625 L 20.34375 41.328125 L 20.34375 21.464844 z "
     id="path863" />
</svg>

<svg xmlns="http://www.w3.org/2000/svg" width="48" height="48"><defs><linearGradient id="a"><stop offset="0" stop-color="#dc85e9"/><stop offset="1" stop-color="#f2cbf8"/></linearGradient><linearGradient id="b"><stop offset="0" stop-color="#dc85e9"/><stop offset="1" stop-color="#f2cbf8"/></linearGradient><linearGradient id="c"><stop offset="0" stop-color="#fff" stop-opacity=".588"/><stop offset="1" stop-color="#fff" stop-opacity=".863"/></linearGradient><linearGradient id="d"><stop offset="0" stop-color="#b3b3b3"/><stop offset="1" stop-color="#e6e6e6"/></linearGradient><linearGradient id="e"><stop offset="0" stop-color="#e694bb"/><stop offset=".262" stop-color="#d3819a"/><stop offset=".705" stop-color="#b25a64"/><stop offset="1" stop-color="#98313d"/></linearGradient></defs><path d="M10.213 2.354c-.778-.018-1.566.039-2.334.003v11.34c-.136.568.145.729.666.621 1.477-.073 3.024.213 4.422-.404 1.785-.774 2.484-3.305 1.271-4.89-.193-.783-2.17-1.02-1.484-1.463 1.646-1.075 1.473-3.893-.274-4.766-.722-.333-1.489-.424-2.267-.441zm8.27.029l-1.64 11.986h1.114l1.121-8.637 3.719 7.772c.234.29.225.985.703.865l4.078-8.572 1.12 8.504c.26.166.787.018 1.146.068L28.34 3.477c-.142-.33.063-1.075-.338-1.094l-4.643 9.834-4.216-8.844c-.239-.299-.254-.972-.66-.99zm16.898 0c-.845-.005-1.694.033-2.537.008v11.912c.24.166.76.013 1.11.062V9.812c.1-.315-.214-1.083.233-1.029 1.593-.074 3.39.26 4.729-.873 1.593-1.444 1.058-4.674-1.021-5.27-.828-.203-1.669-.252-2.514-.257zM9.029 3.512c.798.022 1.609-.066 2.393.123 1.157.187 1.623 1.663 1.03 2.617-.694 1.234-2.226 1.08-3.423 1.09v-3.83zm26.67.023c.582.001 1.16.032 1.729.166 1.466.42 1.706 2.834.379 3.586-1.202.57-2.577.292-3.854.342V3.545c.578.018 1.164-.01 1.746-.01zM9.03 8.557c1.11.028 2.287-.096 3.33.373 1.363.533 1.717 2.54.606 3.521-1.086.974-2.61.612-3.936.684V8.557zm-1.968 7.869l-3.272 2.408-2.787 2.049 2.049 2.787 13.836 18.805v4.072h.011v1.305h28.61v-.055h.015v-29.79h-.093v-.003H34.44l-1.096-1.49-4.307-.014 1.108 1.506H16.887V36.63L5.84 21.619l7.03-5.172 16.167.053-21.976-.074zm13.283 5.039h21.722V41.39H20.39l-.045-.063V21.465z" fill="#e6e6e6"/></svg>
